X:1
T: Follow me Down
C:
R:Reel
Q: 232
K:Am
M:4/4
L:1/8
AG AG E^F GB|A^G AB cd ed|cB cA E^F Ga|ge dB cA dc|
AG AG E^F GB|A^G AB cd ed|cB cA E^F Ga|ge dB cA A2|
AG AG E^F GB|A^G AB cd ed|cB cA E^F Ga|ge dB cA dc|
AG AG E^F GB|A^G AB cd ed|cB cA E^F Ga|ge dB cA A2|
ec ((3ccc) ec gc|BG dG BG dG|ec ((3ccc) eg ^fa|ge dB cA A2|
ag ea ge dB|cB cG E^F GB|A^G AB ce a^f|ge dB cA A2|
ec ((3ccc) ec gc|BG dG BG dG|ec ((3ccc) eg ^fa|ge dB cA A2|
ag ea ge dB|cB cG E^F GB|A^G AB ce a^f|ge dB cA A2||
